assets/f_teleport.svg

<svg width="32" height="32" viewBox="0 0 32 32" fill="none" xmlns="http://www.w3.org/2000/svg">
<path d="M16 31.5C7.43959 31.5 0.5 24.5604 0.5 16C0.5 7.43959 7.43959 0.5 16 0.5C24.5604 0.5 31.5 7.43959 31.5 16C31.5 24.5604 24.5604 31.5 16 31.5Z" fill="#000" stroke="#fff" stroke-linejoin="round"/>
<path d="M22.1875 8.8125H20.8125V10.1875H22.1875V8.8125Z" fill="#fff"/>
<path d="M11.1875 6.75H9.8125V8.125H11.1875V6.75Z" fill="#fff"/>
<path d="M13.9375 10.875H12.5625V12.25H13.9375V10.875Z" fill="#fff"/>
<path d="M24.25 10.875V16.925C23.6828 16.5297 22.9953 16.2031 22.1875 15.9281V11.5625H20.8125V15.5328C19.3172 15.1719 17.65 15 16 15C15.3125 15 14.625 15.0344 13.9375 15.0859V13.625H12.5625V15.2578C12.0984 15.3266 11.6344 15.4297 11.1875 15.5328V9.5H9.8125V15.9281C9.00469 16.2031 8.31719 16.5297 7.75 16.925V13.625H6.375V19.125C6.375 21.8062 11.3422 23.25 16 23.25C20.6578 23.25 25.625 21.8062 25.625 19.125V10.875H24.25ZM7.75 19.125C7.75 18.2656 9.52031 17.1484 12.5625 16.65V21.6172C9.52031 21.1016 7.75 19.9844 7.75 19.125ZM20.125 21.4797V17.75H18.75V21.7031C17.9078 21.8062 16.9969 21.875 16 21.875C15.2781 21.875 14.5906 21.8406 13.9375 21.7891V16.4609C14.5906 16.4094 15.2781 16.375 16 16.375C21.1047 16.375 24.25 17.9734 24.25 19.125C24.25 19.9156 22.7375 20.9297 20.125 21.4797Z" fill="#fff"/>
</svg>

<svg xmlns="http://www.w3.org/2000/svg" width="32" height="32" fill="none" viewBox="0 0 32 32">
  <rect width="31" height="31" x=".5" y=".5" fill="#000" stroke="#fff" stroke-linejoin="round" rx="7.5"/>
  <path fill="#fff" d="M22.188 8.813h-1.375v1.374h1.375V8.813Zm-11-2.063H9.812v1.375h1.376V6.75Zm2.75 4.125h-1.376v1.375h1.376v-1.375Z"/>
  <path fill="#fff" d="M24.25 10.875v6.05c-.567-.395-1.255-.722-2.063-.997v-4.366h-1.375v3.97C19.317 15.173 17.65 15 16 15c-.688 0-1.375.034-2.063.086v-1.461h-1.374v1.633c-.465.069-.929.172-1.376.275V9.5H9.813v6.428c-.808.275-1.496.602-2.063.997v-3.3H6.375v5.5c0 2.681 4.967 4.125 9.625 4.125s9.625-1.444 9.625-4.125v-8.25H24.25Zm-16.5 8.25c0-.86 1.77-1.977 4.813-2.475v4.967c-3.043-.515-4.813-1.633-4.813-2.492Zm12.375 2.355v-3.73H18.75v3.953a22.45 22.45 0 0 1-2.75.172c-.722 0-1.41-.034-2.063-.086v-5.328A25.934 25.934 0 0 1 16 16.375c5.105 0 8.25 1.598 8.25 2.75 0 .79-1.512 1.805-4.125 2.355Z"/>
</svg>
